X: 1
T:MILLMILL-  Mill, Mill, O
S:SMM #242
L:1/4
M:C
J:3#
K:A
A3/4B/4|cE3/4 F/4 E3/2A/|"tr"(F3/4E/4) F/ A/B(A3/4B/4)|\
cE(d/c/B/) A/|({=G/}F3/2^G/)A(A3/4B/4)|c(E3/4F/4)E3/2A/|\
"tr"(F3/4E/4) F/ A/B(A3/4B/4)|({A/4B/4}c)E d/c/B/ A/|\
({=G/}F3/2^G/)A||\
z/E/|(A/B/) c/ d/e3/2 e/|(f/e/) d/ c/B3/2E/|\
(A/B/) c/ d/ (e3/4f/4e/) d/|"tr"c3/4d/ez/E/|\
(A/B/) c/ d/e(d/e/)|(f/e/) d/ c/ B(A3/4B/4)|\
({A/4B/4}c) EEc/4B/4 A/|({=G/}F3/2^G/)A|]
